packages/foundations/assets/icons/functional/images/security/lock_closed_16_filled.svg

<svg width="16" height="16" viewBox="0 0 16 16" fill="none" xmlns="http://www.w3.org/2000/svg">
<g clip-path="url(#clip0_2214_5823)">
<path fill-rule="evenodd" clip-rule="evenodd" d="M7.99995 2.00687C9.71371 2.00687 11.1959 3.40092 11.2 5.20687V6.00687C12.0836 6.00687 12.8 6.72321 12.8 7.60687V12.3931C12.8 13.2768 12.0836 13.9931 11.2 13.9931H4.79995C3.9163 13.9931 3.19995 13.2768 3.19995 12.3931V7.60687C3.19995 6.72321 3.9163 6.00687 4.79995 6.00687V5.20687C4.79995 3.43956 6.23264 2.00687 7.99995 2.00687ZM7.99995 8.39313C7.55812 8.39313 7.19995 8.75131 7.19995 9.19313V10.7892L7.20533 10.8825C7.25155 11.2804 7.58968 11.5892 7.99995 11.5892C8.44178 11.5892 8.79995 11.231 8.79995 10.7892V9.19313L8.79457 9.09984C8.74836 8.70197 8.41022 8.39313 7.99995 8.39313ZM7.99995 3.60687C7.15646 3.60687 6.40233 4.27528 6.39995 5.20687C6.39859 5.74017 6.39995 6.00687 6.39995 6.00687H9.59995V5.20687C9.59995 4.32321 8.88361 3.60687 7.99995 3.60687Z" fill="#1A1C1F"/>
</g>
<defs>
<clipPath id="clip0_2214_5823">
<rect width="16" height="16" fill="white"/>
</clipPath>
</defs>
</svg>

<svg xmlns="http://www.w3.org/2000/svg" width="16" height="16" fill="none"><g clip-path="url(#a)"><path fill="#1A1C1F" fill-rule="evenodd" d="M8 2.007a3.21 3.21 0 0 1 3.2 3.2v.8a1.6 1.6 0 0 1 1.6 1.6v4.786a1.6 1.6 0 0 1-1.6 1.6H4.8a1.6 1.6 0 0 1-1.6-1.6V7.607a1.6 1.6 0 0 1 1.6-1.6v-.8a3.2 3.2 0 0 1 3.2-3.2m0 6.386a.8.8 0 0 0-.8.8v1.596l.005.094a.8.8 0 0 0 1.595-.094V9.193L8.795 9.1A.8.8 0 0 0 8 8.393m0-4.786c-.844 0-1.598.668-1.6 1.6v.8h3.2v-.8a1.6 1.6 0 0 0-1.6-1.6" clip-rule="evenodd"/></g><defs><clipPath id="a"><path fill="#fff" d="M0 0h16v16H0z"/></clipPath></defs></svg>
